icons/thumbs-up.svg

<svg xmlns="http://www.w3.org/2000/svg" width="96" height="96"><path d="M84.2 49.6l.2 3.7.3 3.6-.1 1.8-1.8 6.7-.9 3-.6 3.8c-.2 2.3-.7 4.7-1.7 6.9-1.3 2.3-3.4 4.3-5.8 5.6l-1.4 1-1.1.9c-2.2 2.1-5 3.5-8 3.6-3.1-.3-6.1-1.2-8.9-2.5-6.9-2.8-14-4.7-21.3-5.7-2.3-.2-4.5-.4-6.8-.4s-4.7.1-7 .3h-.5-.1c-2.1 0-4-.9-5.5-2.3-1.4-1.4-2.2-3.4-2.2-5.4V46.5c0-2.1.8-4.1 2.3-5.5 1.4-1.5 3.4-2.3 5.5-2.3h.4c.4 0 .8 0 1.2-.1 1.1-.2 2.1-.5 3.2-.9 2.4-.7 4.6-2 6.4-3.8 1.9-2.3 3.4-4.9 4.3-7.8.9-2.4 1.5-4.9 1.8-7.5l.3-2.3L38 11v-.3c1-2.6 3.4-4.5 6.2-4.9 3.4-.3 6.7.8 9.3 3 1.8 2.2 2.6 5 2.4 7.8v.8l-.8 5.1-1 7.2c0 1.8.5 3.6 1.3 5.3.1.1.2.2.4.2 7.2.8 14.4.8 21.6.2h.2l.4-.1h.1c1.8 0 3.5.7 4.8 1.9 1.3 1.3 2.1 3 2.1 4.8q0 .2-.1 1.4c0 .1-.2 1.2-.3 1.6-.1 1.5-.3 3-.4 4.6zm-7.4-6.1q-.1.2-.6 6.7l.3 3.7.2 3.5-1.6 5.7-1.1 3.5q-.7 4.8-.7 5c-.1 1.3-.4 2.6-.8 3.8-.7 1-2.8 2.4-2.9 2.5l-2 1.3q-1.9 1.6-2 1.7c-.6.7-1.4 1.1-2.3 1.3-1.9-.3-3.8-.9-5.6-1.8-7.6-3.1-15.6-5.3-23.7-6.4-2.5-.2-5.1-.4-7.6-.4s-4.9.1-7.4.3q-.1 0 0 0-.1-27.2 0-27.2c1 0 1.9-.1 2.9-.2 1.4-.3 2.8-.7 4.2-1.2 3.7-1.1 7.1-3.2 9.8-6.1 2.6-3 4.6-6.6 5.9-10.4 1.2-3 1.9-6.1 2.3-9.3l.2-1.6 1.2-4.2c.8.1 1.5.3 2.1.7.3.5.4 1 .3 1.5v.9l-.7 4.5-1 7.6c0 .2-.1.3-.1.5 0 3.1.7 6.2 2.1 9.1 1.3 2.6 3.8 4.4 6.8 4.7 7.2.7 14.5.8 21.8.3zM45.5 13.7" fill-rule="evenodd" fill="#454545"/></svg>

<?xml version="1.0" standalone="no"?><!-- Generator: Gravit.io --><svg xmlns="http://www.w3.org/2000/svg" xmlns:xlink="http://www.w3.org/1999/xlink" width="96" height="96"><path d=" M 84.2 49.6 L 84.4 53.3 L 84.7 56.9 L 84.6 58.7 L 82.8 65.4 L 81.9 68.4 L 81.3 72.2 C 81.1 74.5 80.6 76.9 79.6 79.1 C 78.3 81.4 76.2 83.4 73.8 84.7 L 72.4 85.7 L 71.3 86.6 C 69.1 88.7 66.3 90.1 63.3 90.2 C 60.2 89.9 57.2 89 54.4 87.7 C 47.5 84.9 40.4 83 33.1 82 C 30.8 81.8 28.6 81.6 26.3 81.6 C 24 81.6 21.6 81.7 19.3 81.9 C 19.2 81.9 19.2 81.9 19.1 81.9 L 18.8 81.9 C 18.8 81.9 18.7 81.9 18.7 81.9 C 16.6 81.9 14.7 81 13.2 79.6 C 11.8 78.2 11 76.2 11 74.2 L 11 46.5 C 11 44.4 11.8 42.4 13.3 41 C 14.7 39.5 16.7 38.7 18.8 38.7 C 18.8 38.7 18.8 38.7 18.9 38.7 L 19.1 38.7 C 19.1 38.7 19.2 38.7 19.2 38.7 C 19.6 38.7 20 38.7 20.4 38.6 C 21.5 38.4 22.5 38.1 23.6 37.7 C 26 37 28.2 35.7 30 33.9 C 31.9 31.6 33.4 29 34.3 26.1 C 35.2 23.7 35.8 21.2 36.1 18.6 C 36.1 18.6 36.1 18.6 36.1 18.6 L 36.4 16.3 L 38 11 C 38 10.9 38 10.8 38 10.7 C 39 8.1 41.4 6.2 44.2 5.8 C 47.6 5.5 50.9 6.6 53.5 8.8 C 55.3 11 56.1 13.8 55.9 16.6 L 55.9 17.4 L 55.1 22.5 L 54.1 29.7 C 54.1 31.5 54.6 33.3 55.4 35 C 55.5 35.1 55.6 35.2 55.8 35.2 C 63 36 70.2 36 77.4 35.4 C 77.5 35.4 77.5 35.4 77.6 35.4 L 78 35.3 C 78 35.3 78 35.3 78.1 35.3 C 79.9 35.3 81.6 36 82.9 37.2 C 84.2 38.5 85 40.2 85 42 Q 85 42.2 84.9 43.4 C 84.9 43.5 84.7 44.6 84.6 45 C 84.5 46.5 84.3 48 84.2 49.6 Z  M 76.8 43.5 Q 76.7 43.7 76.2 50.2 L 76.5 53.9 L 76.7 57.4 L 75.1 63.1 L 74 66.6 Q 73.3 71.4 73.3 71.6 C 73.2 72.9 72.9 74.2 72.5 75.4 C 71.8 76.4 69.7 77.8 69.6 77.9 L 67.6 79.2 Q 65.7 80.8 65.6 80.9 C 65 81.6 64.2 82 63.3 82.2 C 61.4 81.9 59.5 81.3 57.7 80.4 C 50.1 77.3 42.1 75.1 34 74 C 31.5 73.8 28.9 73.6 26.4 73.6 C 23.9 73.6 21.5 73.7 19 73.9 Q 18.9 73.9 19 73.9 Q 18.9 46.7 19 46.7 C 20 46.7 20.9 46.6 21.9 46.5 C 23.3 46.2 24.7 45.8 26.1 45.3 C 29.8 44.2 33.2 42.1 35.9 39.2 C 38.5 36.2 40.5 32.6 41.8 28.8 C 43 25.8 43.7 22.7 44.1 19.5 L 44.3 17.9 L 45.5 13.7 C 46.3 13.8 47 14 47.6 14.4 C 47.9 14.9 48 15.4 47.9 15.9 C 47.9 16 47.9 16.2 47.9 16.3 L 47.9 16.8 L 47.2 21.3 L 46.2 28.9 C 46.2 29.1 46.1 29.2 46.1 29.4 C 46.1 32.5 46.8 35.6 48.2 38.5 C 49.5 41.1 52 42.9 55 43.2 C 62.2 43.9 69.5 44 76.8 43.5 Z  M 45.5 13.7" fill-rule="evenodd" fill="#454545" stroke="none"/><mask id="_mask_uFKXIT2oe6CivgPQuS54ik6uetxyPEiA"><path d=" M 84.2 49.6 L 84.4 53.3 L 84.7 56.9 L 84.6 58.7 L 82.8 65.4 L 81.9 68.4 L 81.3 72.2 C 81.1 74.5 80.6 76.9 79.6 79.1 C 78.3 81.4 76.2 83.4 73.8 84.7 L 72.4 85.7 L 71.3 86.6 C 69.1 88.7 66.3 90.1 63.3 90.2 C 60.2 89.9 57.2 89 54.4 87.7 C 47.5 84.9 40.4 83 33.1 82 C 30.8 81.8 28.6 81.6 26.3 81.6 C 24 81.6 21.6 81.7 19.3 81.9 C 19.2 81.9 19.2 81.9 19.1 81.9 L 18.8 81.9 C 18.8 81.9 18.7 81.9 18.7 81.9 C 16.6 81.9 14.7 81 13.2 79.6 C 11.8 78.2 11 76.2 11 74.2 L 11 46.5 C 11 44.4 11.8 42.4 13.3 41 C 14.7 39.5 16.7 38.7 18.8 38.7 C 18.8 38.7 18.8 38.7 18.9 38.7 L 19.1 38.7 C 19.1 38.7 19.2 38.7 19.2 38.7 C 19.6 38.7 20 38.7 20.4 38.6 C 21.5 38.4 22.5 38.1 23.6 37.7 C 26 37 28.2 35.7 30 33.9 C 31.9 31.6 33.4 29 34.3 26.1 C 35.2 23.7 35.8 21.2 36.1 18.6 C 36.1 18.6 36.1 18.6 36.1 18.6 L 36.4 16.3 L 38 11 C 38 10.9 38 10.8 38 10.7 C 39 8.1 41.4 6.2 44.2 5.8 C 47.6 5.5 50.9 6.6 53.5 8.8 C 55.3 11 56.1 13.8 55.9 16.6 L 55.9 17.4 L 55.1 22.5 L 54.1 29.7 C 54.1 31.5 54.6 33.3 55.4 35 C 55.5 35.1 55.6 35.2 55.8 35.2 C 63 36 70.2 36 77.4 35.4 C 77.5 35.4 77.5 35.4 77.6 35.4 L 78 35.3 C 78 35.3 78 35.3 78.1 35.3 C 79.9 35.3 81.6 36 82.9 37.2 C 84.2 38.5 85 40.2 85 42 Q 85 42.2 84.9 43.4 C 84.9 43.5 84.7 44.6 84.6 45 C 84.5 46.5 84.3 48 84.2 49.6 Z  M 76.8 43.5 Q 76.7 43.7 76.2 50.2 L 76.5 53.9 L 76.7 57.4 L 75.1 63.1 L 74 66.6 Q 73.3 71.4 73.3 71.6 C 73.2 72.9 72.9 74.2 72.5 75.4 C 71.8 76.4 69.7 77.8 69.6 77.9 L 67.6 79.2 Q 65.7 80.8 65.6 80.9 C 65 81.6 64.2 82 63.3 82.2 C 61.4 81.9 59.5 81.3 57.7 80.4 C 50.1 77.3 42.1 75.1 34 74 C 31.5 73.8 28.9 73.6 26.4 73.6 C 23.9 73.6 21.5 73.7 19 73.9 Q 18.9 73.9 19 73.9 Q 18.9 46.7 19 46.7 C 20 46.7 20.9 46.6 21.9 46.5 C 23.3 46.2 24.7 45.8 26.1 45.3 C 29.8 44.2 33.2 42.1 35.9 39.2 C 38.5 36.2 40.5 32.6 41.8 28.8 C 43 25.8 43.7 22.7 44.1 19.5 L 44.3 17.9 L 45.5 13.7 C 46.3 13.8 47 14 47.6 14.4 C 47.9 14.9 48 15.4 47.9 15.9 C 47.9 16 47.9 16.2 47.9 16.3 L 47.9 16.8 L 47.2 21.3 L 46.2 28.9 C 46.2 29.1 46.1 29.2 46.1 29.4 C 46.1 32.5 46.8 35.6 48.2 38.5 C 49.5 41.1 52 42.9 55 43.2 C 62.2 43.9 69.5 44 76.8 43.5 Z  M 45.5 13.7" fill-rule="evenodd" fill="white" stroke="none"/></mask><path d=" M 84.2 49.6 L 84.4 53.3 L 84.7 56.9 L 84.6 58.7 L 82.8 65.4 L 81.9 68.4 L 81.3 72.2 C 81.1 74.5 80.6 76.9 79.6 79.1 C 78.3 81.4 76.2 83.4 73.8 84.7 L 72.4 85.7 L 71.3 86.6 C 69.1 88.7 66.3 90.1 63.3 90.2 C 60.2 89.9 57.2 89 54.4 87.7 C 47.5 84.9 40.4 83 33.1 82 C 30.8 81.8 28.6 81.6 26.3 81.6 C 24 81.6 21.6 81.7 19.3 81.9 C 19.2 81.9 19.2 81.9 19.1 81.9 L 18.8 81.9 C 18.8 81.9 18.7 81.9 18.7 81.9 C 16.6 81.9 14.7 81 13.2 79.6 C 11.8 78.2 11 76.2 11 74.2 L 11 46.5 C 11 44.4 11.8 42.4 13.3 41 C 14.7 39.5 16.7 38.7 18.8 38.7 C 18.8 38.7 18.8 38.7 18.9 38.7 L 19.1 38.7 C 19.1 38.7 19.2 38.7 19.2 38.7 C 19.6 38.7 20 38.7 20.4 38.6 C 21.5 38.4 22.5 38.1 23.6 37.7 C 26 37 28.2 35.7 30 33.9 C 31.9 31.6 33.4 29 34.3 26.1 C 35.2 23.7 35.8 21.2 36.1 18.6 C 36.1 18.6 36.1 18.6 36.1 18.6 L 36.4 16.3 L 38 11 C 38 10.9 38 10.8 38 10.7 C 39 8.1 41.4 6.2 44.2 5.8 C 47.6 5.5 50.9 6.6 53.5 8.8 C 55.3 11 56.1 13.8 55.9 16.6 L 55.9 17.4 L 55.1 22.5 L 54.1 29.7 C 54.1 31.5 54.6 33.3 55.4 35 C 55.5 35.1 55.6 35.2 55.8 35.2 C 63 36 70.2 36 77.4 35.4 C 77.5 35.4 77.5 35.4 77.6 35.4 L 78 35.3 C 78 35.3 78 35.3 78.1 35.3 C 79.9 35.3 81.6 36 82.9 37.2 C 84.2 38.5 85 40.2 85 42 Q 85 42.2 84.9 43.4 C 84.9 43.5 84.7 44.6 84.6 45 C 84.5 46.5 84.3 48 84.2 49.6 Z  M 76.8 43.5 Q 76.7 43.7 76.2 50.2 L 76.5 53.9 L 76.7 57.4 L 75.1 63.1 L 74 66.6 Q 73.3 71.4 73.3 71.6 C 73.2 72.9 72.9 74.2 72.5 75.4 C 71.8 76.4 69.7 77.8 69.6 77.9 L 67.6 79.2 Q 65.7 80.8 65.6 80.9 C 65 81.6 64.2 82 63.3 82.2 C 61.4 81.9 59.5 81.3 57.7 80.4 C 50.1 77.3 42.1 75.1 34 74 C 31.5 73.8 28.9 73.6 26.4 73.6 C 23.9 73.6 21.5 73.7 19 73.9 Q 18.9 73.9 19 73.9 Q 18.9 46.7 19 46.7 C 20 46.7 20.9 46.6 21.9 46.5 C 23.3 46.2 24.7 45.8 26.1 45.3 C 29.8 44.2 33.2 42.1 35.9 39.2 C 38.5 36.2 40.5 32.6 41.8 28.8 C 43 25.8 43.7 22.7 44.1 19.5 L 44.3 17.9 L 45.5 13.7 C 46.3 13.8 47 14 47.6 14.4 C 47.9 14.9 48 15.4 47.9 15.9 C 47.9 16 47.9 16.2 47.9 16.3 L 47.9 16.8 L 47.2 21.3 L 46.2 28.9 C 46.2 29.1 46.1 29.2 46.1 29.4 C 46.1 32.5 46.8 35.6 48.2 38.5 C 49.5 41.1 52 42.9 55 43.2 C 62.2 43.9 69.5 44 76.8 43.5 Z  M 45.5 13.7" fill-rule="evenodd" fill="none" stroke="none" stroke-width="16" mask="url(#_mask_uFKXIT2oe6CivgPQuS54ik6uetxyPEiA)"/></svg>
